X:4
T:Petronella
R:barndance
S:Session tape with Mairead Ni Mhaonaigh and Frankie Kennedy
H:Also as hornpipe#57
H:Actually a german from Donegal. Originally an English country dance.
Z:id:hn-barndance-4
M:C|
K:D
F2AF E2AE|.D2.D2 D2FA|d2cd e2d2|cdec ABAG|
F2AF E2AE|.D2.D2 D2FA|d2cd e2de|f2d2 d2z2:|
|:A2f2 A2f2|g2gf edcB|A2ec Acec|fgfe dcBc|
A2f2 A2f2|g2gf edcB|A2ec Acec|d2d2 d2z2:|

